X: 22361
T: Lacey's
R: jig
M: 6/8
K: Adorian
|:EAA A^ce|d3 e^cA|EAA AB=c|DEF G3|
EAA A^ce|g2b age|dB/c/d ecA|G3 EAA:|
|:eaa g2e|edB AGE|eaa g2a|bag a2e|
eaa g2e|edB AGE|GAB d2e|dBG EAA:|

